src/lib/packages/icons/src/assets/filled/more-vertical.svg

<svg xmlns="http://www.w3.org/2000/svg" width="24" height="24" fill="none"><path fill="currentColor" d="M12.02 6a2.005 2.005 0 0 1-2.005-2c0-1.104.89-2 1.995-2h.01a2 2 0 0 1 0 4Zm2 6a2 2 0 0 0-2-2h-.01a1.996 1.996 0 0 0-1.995 2c0 1.104.9 2 2.005 2a2 2 0 0 0 2-2Zm0 8a2 2 0 0 0-2-2h-.01a1.996 1.996 0 0 0-1.995 2c0 1.104.9 2 2.005 2a2 2 0 0 0 2-2Z"/></svg>

<svg width="24" height="24" viewBox="0 0 24 24" fill="none" xmlns="http://www.w3.org/2000/svg">
<path d="M12.02 6C10.916 6 10.015 5.104 10.015 4C10.015 2.896 10.905 2 12.01 2H12.02C13.124 2 14.02 2.896 14.02 4C14.02 5.104 13.125 6 12.02 6ZM14.02 12C14.02 10.896 13.124 10 12.02 10H12.01C10.906 10 10.015 10.896 10.015 12C10.015 13.104 10.915 14 12.02 14C13.125 14 14.02 13.104 14.02 12ZM14.02 20C14.02 18.896 13.124 18 12.02 18H12.01C10.906 18 10.015 18.896 10.015 20C10.015 21.104 10.915 22 12.02 22C13.125 22 14.02 21.104 14.02 20Z" fill="currentColor"/>
</svg>
